X:169
T:The Weshin'-Day
T:There's Nae Luck Aboot the Hoose
Z:Jack Campin, http://www.campin.me.uk/
F:Jack Campin's Nine-Note Tunebook
% last edit 03-02-2013
S:Crawhall: A Beuk o' Newcassel Sangs
M:2/4
L:1/8
Q:1/4=124
K:D
B|dBAF |G>GGB|dBAF |E2z \
B|dBAF |GGGB |A>GFE|D3
B|dBAF |G>GGB|dBAF |E3  \
B|dBAF |G>ABd|A>GFE|D3||
E|F2 FD|G2 GE|F2FD |E2z \
A|F>FFF|G>ABd|AGFE |D3|]

